X:3
T:WALKER STREET -- REEL.
B:Coles
Z:John Walsh <walsh:mat:h.ubc.ca>
R:reel
Z:aka The Traveller (O'Neill's DMI 719)
M:2/4
L:1/16
K:G
uD|vG2(BG) dGBG|ABcd cBAG|Bdgd egdB|cB"4"AG FADF|\
G2(BG) dGBG|ABcd cBAG|Bdgd egdc|BG"4"AF G2:|
|:veuf|{a}g2(dg) Bgdg|gabg agef|g2(dg) Bgdg|cB"4"AG FADF|\
{a}g2(dg) Bgdg|gabg agef|gfga gfed|egfa g2:|
